X: 694
T: Yitbarech Shimcha [F#m]
M: 2/4
L: 1/8
Z: 2009 John Chambers <jc:trillian.mit.edu>
S: printed MS of unknown origin
K: F#m
C \
| "F#m"F2 F2 | A A2 "(C#7)"G | "F#m"F2- F2 | A (A2 "(C#7)"G) \
| "F#m"F2 F2 | "Bm" B B2 F | "F#m"AA "C#7"G/F/G | "F#m"F3 :|
c \
| "A"e2 d2 | c c2 c | "Bm"(d2 c2) | B B2- B \
| d2 c2 | B B2 A | "A"c2 "(E)"B2 | "A(F#m)"A A2 |]
c \
| "A"e2 d2 | c c2 c | "Bm"(d2 c2) | B B2- B \
| d2 c2 | B B2 F | "F#m"AA "C#7"G/F/G | "F#m"F3 |]
